X:1
T:Moments in Time
C:Kathy Talvitie
R:waltz
M:3/4
L:1/4
K:D
"D"FAd|"F#m"cAF|"G"B3|"A7"A2G|"D"FAe|
"Bm"dAF|"GMaj7"B3|"A7"c2G|"D"da>d|"D/C"g/f/ d2|"Bm"g/f/ d "Bm/A"F|
"G"[B2G2] B|"D"Af>e|"Bm"f/e/ dF|"G"G/A/ e"A7"c|"D"d3||
|:"A7"E>F G-|"A7/C#"G/B/ cg|"D"f>d A|"G"[B3G3]|
"Em"e>df-|"A7"f/e/ AG|"D"F3|"A7"E3|
"Em"E>F E-|"Bm"E/D/ B,D|"D"A2-A/E/|"Bm"F3|"GMaj7"F>E B,|
|1"A7"CA,G|"D"F3-|F3:|2"A7"CA,C|"D"D3-|D3:|
W:  1990 Kathy Talvitie. All rights reserved. Used by permission.
